Yaru++/actions/16/snap-nodes-path.svg

<svg viewBox="0 0 24 24" xmlns="http://www.w3.org/2000/svg">
  <path d="m20 5a15 15 0 0 0 -15 15h1a14 14 0 0 1 14-14z" fill="#808080"/>
  <path d="m8 6a2 2 0 0 0 -2 2 2 2 0 0 0 2 2 2 2 0 0 0 2-2 2 2 0 0 0 -2-2zm0 1a1 1 0 0 1 1 1 1 1 0 0 1 -1 1 1 1 0 0 1 -1-1 1 1 0 0 1 1-1zm4 2a2 2 0 0 0 -2 2 2 2 0 0 0 2 2 2 2 0 0 0 2-2 2 2 0 0 0 -2-2zm0 1a1 1 0 0 1 1 1 1 1 0 0 1 -1 1 1 1 0 0 1 -1-1 1 1 0 0 1 1-1z" fill="#1d99f3"/>
</svg>

<svg xmlns="http://www.w3.org/2000/svg" viewBox="0 0 24 24">
 <defs>
  <style id="current-color-scheme" type="text/css">
   .ColorScheme-Text { color:#808080; } .ColorScheme-Highlight { color:#1d99f3; }
  </style>
 </defs>
 <path style="fill:currentColor" class="ColorScheme-Text" d="M 20 5 A 15 15 0 0 0 5 20 L 6 20 A 14 14 0 0 1 20 6 L 20 5 z"/>
 <path style="fill:currentColor" class="ColorScheme-Highlight" d="M 8 6 A 2 2 0 0 0 6 8 A 2 2 0 0 0 8 10 A 2 2 0 0 0 10 8 A 2 2 0 0 0 8 6 z M 8 7 A 1 1 0 0 1 9 8 A 1 1 0 0 1 8 9 A 1 1 0 0 1 7 8 A 1 1 0 0 1 8 7 z M 12 9 A 2 2 0 0 0 10 11 A 2 2 0 0 0 12 13 A 2 2 0 0 0 14 11 A 2 2 0 0 0 12 9 z M 12 10 A 1 1 0 0 1 13 11 A 1 1 0 0 1 12 12 A 1 1 0 0 1 11 11 A 1 1 0 0 1 12 10 z"/>
</svg>
